hero/outline/pencil-square.svg

<svg width="24" height="24" viewBox="0 0 24 24" fill="none" xmlns="http://www.w3.org/2000/svg">
<path d="M16.8617 4.48667L18.5492 2.79917C19.2814 2.06694 20.4686 2.06694 21.2008 2.79917C21.9331 3.53141 21.9331 4.71859 21.2008 5.45083L10.5822 16.0695C10.0535 16.5981 9.40144 16.9868 8.68489 17.2002L6 18L6.79978 15.3151C7.01323 14.5986 7.40185 13.9465 7.93052 13.4178L16.8617 4.48667ZM16.8617 4.48667L19.5 7.12499M18 14V18.75C18 19.9926 16.9926 21 15.75 21H5.25C4.00736 21 3 19.9926 3 18.75V8.24999C3 7.00735 4.00736 5.99999 5.25 5.99999H10" stroke="#0F172A" stroke-width="1.5" stroke-linecap="round" stroke-linejoin="round"/>
</svg>

<svg viewBox="0 0 24 24" xmlns="http://www.w3.org/2000/svg"><path fill="none" stroke="#000" stroke-linecap="round" stroke-linejoin="round" stroke-width="1.5" d="M16.862 4.48l1.68-1.69V2.78c.73-.74 1.91-.74 2.65-.01 .73.73.73 1.91 0 2.65 0 0-.01 0-.01 0L10.56 16.04v0c-.53.52-1.19.91-1.9 1.13l-2.69.8 .8-2.69H6.77c.21-.72.6-1.37 1.13-1.9l8.93-8.94Zm0 0l2.63 2.63m-1.5 6.87v4.75 0c0 1.24-1.01 2.25-2.25 2.25H5.24v0c-1.25 0-2.25-1.01-2.25-2.25V8.23v0c0-1.25 1-2.25 2.25-2.25h4.75"/></svg>
